X:1
T: Haud Awa' Hame
C:
R:Jig
Q:180
K:D
M:6/8
L:1/16
|:f2|c2f2g2 f4e2|f2a2f2 e2c2A2|c2f2g2 f4e2|c2B2A2 f6|
c2f2g2 f4e2|f2a2f2 e2c2A2|A2B2A2 B2c2d2|c2B2A2 f4:|
|:d2|c2B2A2 A2B2A2|c2B2A2 B2c2d2|c2B2A2 A2B2c2|c2B2c2 g6|
c2B2A2 A2B2A2|c2B2A2 B2c2d2|c2f2a2 f2e2d2|c2B2A2 f4:|
